!!!!SEGMENT: pl-sa--70-a-ii-10--007_pergolesi-giovanni-battista--stabat-mater-eja-mater.krn
!!!cenid: 17xx:649
!!!COM: Pergolesi, Giovanni Battista
!!!COM-rismid: pe30002483
!!!CDT: 1710/01/04-1736/03
!!!CNT: Italian
!!!OPR: Stabat Mater
!!!OTL: Eja mater
!!!OMV: 007
!!!PDT:
!!!AGN: Sacred
!!!SMS-siglum: PL-SA
!!!SMS-shelfmark: 70/A II 10
!!!SMS-shelfwork: 001-007 M
!!!SMS-variant:
!!!SMS-altvar:
!!!NIFC-rismid: 1001030091
!!!URL-scan: http://bc.bdsandomierz.pl/dlibra/publication/1341/edition/1309/content
!!!ONB-nifc: UWAGA: części Stabat Mater: Stabat Mater, Cuius animam, O quam tristis, Quae moerebat, Quist est homo+Pro peccatis, Vidit suum, Eja mater, Fac ut ardeat, Sancta Mater, Fac ut portem, Inflammatus, Quando corpus+Amen
!!!key:
**kern	**fba	**kernyy	**kernyy	**dynam	**kernyy	**dynam	**kernyy	**text	**kernyy
*part6	*part6	*part5	*part4	*part4	*part3	*part3	*part2	*part2	*part1
*staff6	*	*staff5	*staff4	*	*staff3	*	*staff2	*staff2	*staff1
*Iorgan	*	*	*	*	*	*	*	*	*
*I"Organo	*	*I"Viola	*I"Violino 2do	*	*I"Violino 1mo	*	*I"Alto	*	*I"Canto
*I'org	*	*I'va	*I'vn 2	*	*I'vn 1	*	*I'A	*	*I'C
*clefF4	*	*clefC3	*clefG2	*	*clefG2	*	*clefC3	*	*clefC1
*k[b-e-a-]	*	*k[b-e-a-]	*k[b-e-a-]	*	*k[b-e-a-]	*	*k[b-e-a-]	*	*k[b-e-a-]
*c:	*	*c:	*c:	*	*c:	*	*c:	*	*c:
*M3/8	*	*M3/8	*M3/8	*	*M3/8	*	*M3/8	*	*M3/8
=1	=1	=1	=1	=1	=1	=1	=1	=1	=1
!	!	!LO:TX:b:i:t=Eia Mater	!	!	!LO:TX:b:i:t=Eia Mater	!	!LO:TX:a:t=13	!	!
!LO:TX:b:i:t=Eia Mater	!	!	!LO:TX:b:i:t=Eia Mater	!	!LO:TX:a:t=ſolo	!	!LO:N:vis=00	!	!LO:TX:a:t=Eia Mater \n Tacet
4.r	.	4.r	8gg\L	.	8gg\L	.	1.r	.	4.ryy
.	.	.	8ee-\	.	8ee-\	.	.	.	.
.	.	.	8dd\J	.	8dd\J	.	.	.	.
=2	=2	=2	=2	=2	=2	=2	=2	=2	=2
8c\L	.	8cc\L	16cc\LL	.	16cc\LL	.	.	.	4.ryy
.	.	.	16bn\JJ	.	16bn\JJ	.	.	.	.
8A-X\	6	8a-\	4cc\	.	4cc\	.	.	.	.
8G\J	.	8g\J	.	.	.	.	.	.	.
=3	=3	=3	=3	=3	=3	=3	=3	=3	=3
8F\L	6 5	8f\L	(16dd\LL	.	16dd\LL	.	.	.	4.ryy
.	.	.	16ff\J)	.	16ff\JJ	.	.	.	.
8G\	6 4	8g\	8ee-\	.	8ee-\L	.	.	.	.
8F\J	4 2	8f\J	8dd\J	.	8dd\J	.	.	.	.
!LO:LB:g=original	!	!	!	!	!	!	!	!	!
=4	=4	=4	=4	=4	=4	=4	=4	=4	=4
8E-\L	6	8e-\L	16gg\LL	.	16gg\LL	.	.	.	4.ryy
.	.	.	16ee-\JJ	.	16ee-\JJ	.	.	.	.
.	.	.	.	.	8qqdd/	.	.	.	.
8A-X\	.	8a-X\	4cc\	.	4cc\	.	.	.	.
8G\J	.	8g\J	.	.	.	.	.	.	.
!	!	!LO:LB:g=original	!	!	!	!	!	!	!
=5	=5	=5	=5	=5	=5	=5	=5	=5	=5
!	!	!	!	!	!	!	!LO:N:vis=00	!	!
8F\L	6 5	8f\L	16dd\LL	.	16dd\LL	.	1.r	.	4.ryy
.	.	.	16ff\JJ	.	16ff\JJ	.	.	.	.
8G\	6 4	8g\	8ee-\L	.	8ee-\L	.	.	.	.
8F\J	4 2	8f\J	8dd\J	.	8dd\J	.	.	.	.
=6	=6	=6	=6	=6	=6	=6	=6	=6	=6
8E-\L	6	8e-X\L	8cc\L	.	8cc\L	.	.	.	4.ryy
!	!	!	!	!	!LO:TX:a:t=P:problem: prawdopodobnie SIC:s=8bn	!	!	!	!
8D\	.	8d\	8bn\	.	8b-X\	.	.	.	.
8C\J	.	8c\J	8a-X\J	.	[8a-X\J	.	.	.	.
=7	=7	=7	=7	=7	=7	=7	=7	=7	=7
4D\	5	4d\	8a-/L	.	8a-/L]	.	.	.	4.ryy
.	-	.	8g/	.	8g/	.	.	.	.
8C/	4 2	8c\	8f#X/J	.	8f#X/J	.	.	.	.
=8	=8	=8	=8	=8	=8	=8	=8	=8	=8
8BBn/L	6	8Bn/L	8g/	.	8g/	.	.	.	4.ryy
!LO:SIC:ss=8AAn:v	!	!	!	!	!	!	!	!	!
8AA-/	.	8An/	4ffn\	.	4ffn\	.	.	.	.
8GG/J	7	8G/J	.	.	.	.	.	.	.
=9	=9	=9	=9	=9	=9	=9	=9	=9	=9
!	!	!	!	!	!	!	!LO:N:vis=00	!	!
8C\L	6 5	8c\L	16ee-\LL	.	16ee-\LL	.	1.r	.	4.ryy
.	.	.	16gg\	.	16gg\	.	.	.	.
8D\	6|	8d\	16bn\	.	16bn\	.	.	.	.
.	.	.	16dd\J	.	16dd\J	.	.	.	.
8E-\J	6	8e-\J	8cc\J	.	8cc\J	.	.	.	.
=10	=10	=10	=10	=10	=10	=10	=10	=10	=10
!LO:TX:a:t=P:problem: mixed beam	!	!LO:TX:a:t=P:problem: mixed beam	!	!	!	!	!	!	!
8F\L	6 5	8f\L	8a-X/L	.	8a-X/L	.	.	.	4.ryy
8G\	4	8g\	8g/	.	8g/	.	.	.	.
8GG/J	n	8G/J	8Bn/J	.	8Bn/J	.	.	.	.
!	!	!	!	!	!LO:LB:g=original	!	!	!	!
=11	=11	=11	=11	=11	=11	=11	=11	=11	=11
8C\L	6 5	8c\L	16ee-\LL	.	16ee-\LL	.	.	.	4.ryy
.	.	.	16gg\	.	16gg\	.	.	.	.
8D\	6|	8d\	16bn\	.	16bn\	.	.	.	.
.	.	.	16dd\J	.	16dd\J	.	.	.	.
8E-\J	6	8e-\J	8cc\J	.	8cc\J	.	.	.	.
=12	=12	=12	=12	=12	=12	=12	=12	=12	=12
!LO:TX:a:t=P:problem: mixed beam	!	!LO:TX:a:t=P:problem: mixed beam	!	!	!	!	!	!	!
8F\L	.	8f\L	8a-X/L	.	8a-X/L	.	.	.	4.ryy
8G\	4	8g\	8g/	.	8g/	.	.	.	.
8GG/J	n	8G/J	8Bn/J	.	8Bn/J	.	.	.	.
=13	=13	=13	=13	=13	=13	=13	=13	=13	=13
4.C/	.	4c\	4c/	.	4c/	.	4.r	.	4.ryy
.	.	8r	8r	.	8r	.	.	.	.
=14	=14	=14	=14	=14	=14	=14	=14	=14	=14
!	!	!LO:TX:a:t=1	!	!	!	!LO:DY:b	!	!	!
4.r	.	4.r	8gg\L	.	8gg\L	p	8g\	E-	4.ryy
.	.	.	8ee-\	.	8ee-\	.	8e-\L	-ia	.
!	!	!	!LO:SIC:ss=8dd:v	!	!	!	!	!	!
.	.	.	8cc\J	.	8dd\J	.	8d\J	.	.
=15	=15	=15	=15	=15	=15	=15	=15	=15	=15
8c\L	.	8cc\L	16cc\LL	.	16cc\LL	.	16c/LL	ma-	4.ryy
.	.	.	16bn\JJ	.	16bn\JJ	.	16Bn/JJ	.	.
8A-X\	.	8a-\	4cc\	.	4cc\	.	4c/	-ter	.
8G\J	.	8g\J	.	.	.	.	.	.	.
=16	=16	=16	=16	=16	=16	=16	=16	=16	=16
8F\L	6 5	8f\L	(16dd\LL	.	16dd\LL	.	16d\LL	fons	4.ryy
.	.	.	16ff\J)	.	16ff\JJ	.	16f\J	.	.
8G\	6 4	8g\	8ee-\	.	8ee-\L	.	8e-\J	.	.
8F\J	4 2	8f\J	8dd\J	.	8dd\J	.	8d\	a-	.
!	!	!	!	!	!	!	!LO:LB:g=original	!	!
=17	=17	=17	=17	=17	=17	=17	=17	=17	=17
8E-\L	5	8e-\L	16gg\LL	.	16gg\LL	.	16g\LL	-mo-	4.ryy
.	.	.	16ee-\JJ	.	16ee-\JJ	.	16e-\JJ	.	.
!	!	!	!	!	!	!	!LO:N:vis=8	!	!
.	.	.	.	.	8qqdd/	.	8qqd/	.	.
8A-X\	.	8a-\	4cc\	.	4cc\	.	4c\	-ris	.
8G\J	.	8g\J	.	.	.	.	.	.	.
!	!	!	!LO:LB:g=original	!	!	!	!	!	!
=18	=18	=18	=18	=18	=18	=18	=18	=18	=18
!	!	!LO:TX:a:t=P:problem: mixed beam	!	!	!	!	!	!	!
8F\L	6 5	8f\L	16dd\LL	.	16dd\LL	.	16d\LL	fons	4.ryy
.	.	.	16ff\J	.	16ff\JJ	.	16f\J	.	.
8G\	4	8g\	8ee-\	.	8ee-\L	.	8e-\J	.	.
8G\J	n	8G/J	8dd\J	.	8dd\J	.	8d\	a-	.
=19	=19	=19	=19	=19	=19	=19	=19	=19	=19
*	*	*	*Xtuplet	*	*Xtuplet	*	*Xtuplet	*	*
!	!	!	!	!	!LO:TX:a:t=P:problem:brak oznaczenia trioli	!	!	!	!
!LO:TX:a:t=P:problem: mixed beam	!	!LO:TX:a:t=P:problem: mixed beam	!LO:TX:a:t=P:problem:brak oznaczenia trioli:global	!	!LO:TX:a:t=P:problem:klamra łukowa z kropką	!	!LO:TX:a:t=P:problem: bral oznaczeń trioli:global	!	!
16C\LL	.	16c/LL	24ee-\LL	.	24ee-\LL	.	24e-\LL	-mo-	4.ryy
.	.	.	24dd\	.	24dd\	.	24d\	.	.
16c\	.	16cc\	.	.	.	.	.	.	.
.	.	.	24cc\JJ	.	24cc\JJ	.	24c\JJ	.	.
16B-\	.	16b-\	4cc\	.	4cc\	.	8c\	-ris	.
16A-\	.	16a-\	.	.	.	.	.	.	.
16G\	.	16g\	.	.	.	.	8r	.	.
16F\JJ	.	16f\JJ	.	.	.	.	.	.	.
=20	=20	=20	=20	=20	=20	=20	=20	=20	=20
4E-\	.	4e-\	8bb-\L	.	8bb-\L	.	8b-\L	me	4.ryy
.	.	.	8gg\	.	8gg\	.	8g\J	.	.
8r	.	8r	8ff\J	.	8ff\J	.	8f\	sen-	.
!LO:LB:g=original	!	!	!	!	!	!	!	!	!
=21	=21	=21	=21	=21	=21	=21	=21	=21	=21
8e-\L	.	8e-\L	16ee-\LL	.	16ee-\LL	.	16e-\LL	-ti-	4.ryy
.	.	.	16dd\JJ	.	16dd\JJ	.	16dn\JJ	.	.
.	.	.	.	.	.	.	8qqd/	.	.
8c\	.	8c\	4ee-\	.	4ee-\	.	4e-\	-re	.
8B-\J	.	8B-\J	.	.	.	.	.	.	.
=22	=22	=22	=22	=22	=22	=22	=22	=22	=22
8A-X\L	.	8A-X/L	16ff\LL	.	16ff\LL	.	16f\LL	vim	4.ryy
.	.	.	16aa-X\JJ	.	16aa-X\JJ	.	16a-X\J	.	.
8B-\	6 4	8B-/	8gg\L	.	8gg\L	.	8g\J	.	.
8A-\J	4 2	8A-/J	8ff\J	.	8ff\J	.	8f\	do-	.
=23	=23	=23	=23	=23	=23	=23	=23	=23	=23
8G\L	6	8G/L	16bb-\LL	.	16bb-\LL	.	16b-\LL	-lo-	4.ryy
.	.	.	16gg\JJ	.	16gg\JJ	.	16g\JJ	.	.
!	!	!LO:TX:a:t=P:problem: prawdopodobnie SIC:s=8c	!	!	!	!	!	!	!
.	.	.	.	.	8qqff/	.	8qqf/	.	.
8c\	.	8c-X/	4ee-\	.	4ee-\	.	4e-\	-ris	.
8B-\J	.	8B-/J	.	.	.	.	.	.	.
!	!	!LO:LB:g=original	!	!	!	!	!	!	!
=24	=24	=24	=24	=24	=24	=24	=24	=24	=24
!LO:TX:a:t=P:problem: mixed beam	!	!LO:TX:a:t=P:problem: mixed beam	!	!	!	!	!	!	!
8A-X\L	.	8a-X\L	16ff\LL	.	16ff\LL	.	16f\LL	vim	4.ryy
.	.	.	16aa-X\JJ	.	16aa-X\J	.	16a-X\J	.	.
8B-\	4 3	8b-\	8gg\L	.	8gg\	.	8g\J	.	.
8BB-/J	.	8B-/J	8ff\J	.	8ff\J	.	8f\	do-	.
=25	=25	=25	=25	=25	=25	=25	=25	=25	=25
*	*	*	*	*	*tuplet	*	*	*	*
!	!	!	!	!	!LO:TX:a:t=P:problem:klamra łukowa	!	!	!	!
8E-\L	.	8e-\L	24gg\LL	.	24gg\LL	.	16g\LL	-lo-	4.ryy
.	.	.	24ff\	.	24ff\	.	.	.	.
.	.	.	.	.	.	.	16f\	.	.
.	.	.	24ee-\JJ	.	24ee-\JJ	.	.	.	.
8G\	.	8g\	8ee-\	.	8ee-\	.	16e-\JJ	.	.
.	.	.	.	.	.	.	8e-\	-ris	.
8B-\J	.	8b-\J	8r	.	8r	.	.	.	.
.	.	.	.	.	.	.	16r	.	.
=26	=26	=26	=26	=26	=26	=26	=26	=26	=26
8r	.	8r	4.b-\	.	4.b-/	.	4.b-\	fac	4.ryy
8E-\L	6	8e-\L	.	.	.	.	.	.	.
.	7	.	.	.	.	.	.	.	.
8E-\J	.	8e-\J	.	.	.	.	.	.	.
=27	=27	=27	=27	=27	=27	=27	=27	=27	=27
*	*	*	*	*	*^	*	*	*	*
8r	.	8r	4.b-\	.	4.dd-X/	4.b-\	.	4.dd-X\	ut	4.ryy
8E-\L	.	8e-\L	.	.	.	.	.	.	.	.
8E-\J	.	8e-\J	.	.	.	.	.	.	.	.
*	*	*	*	*	*v	*v	*	*	*	*
!	!	!	!	!	!	!	!LO:LB:g=original	!	!
=28	=28	=28	=28	=28	=28	=28	=28	=28	=28
!	!	!	!	!	!LO:TX:a:t=P:problem: mixed beam	!	!	!	!
!	!	!	!LO:TX:a:t=P:problem: mixed beam	!	!	!LO:DY:b:t=for	!	!	!
8F\L	.	8f\L	16a-/LL	.	16a-/LL	f	16cc\LL	te-	4.ryy
.	.	.	16aa-\	.	16aa-\	.	16b-\JJ	.	.
8G\	.	8g\	16een\	.	16een\	.	4cc\	-cum	.
.	.	.	16gg\J	.	16gg\J	.	.	.	.
8A-X\J	.	8a-\J	8ff\J	.	8ff\J	.	.	.	.
!	!	!	!	!	!LO:LB:g=original	!	!	!	!
=29	=29	=29	=29	=29	=29	=29	=29	=29	=29
!LO:TX:a:t=P:problem: mixed beam	!	!LO:TX:a:t=P:problem: mixed beam	!LO:TX:a:t=P:problem: mixed beam	!	!LO:TX:a:t=P:problem: mixed beam	!	!	!	!
8B-\L	6	8b-\L	8dd-X\L	.	8dd-X\L	.	8dd-X\L	lu-	4.ryy
8c\	4	8cc\	8cc\	.	8cc\	.	8cc\J	.	.
8C/J	n	8c/J	8en/J	.	8en/J	.	8en\	-ge-	.
=30	=30	=30	=30	=30	=30	=30	=30	=30	=30
!	!	!	!LO:TX:a:t=P:problem: mixed beam	!	!LO:TX:a:t=P:problem: mixed beam	!	!	!	!
8F\L	.	4f\	16f/LL	.	16a-/LL	.	4.f\	-am	4.ryy
.	.	.	16aa-\	.	16aa-\	.	.	.	.
8G\	.	.	16een\	.	16een\	.	.	.	.
.	.	.	16gg\J	.	16gg\J	.	.	.	.
8A-X\J	.	8r	8ff\J	.	8ff\J	.	.	.	.
=31	=31	=31	=31	=31	=31	=31	=31	=31	=31
!LO:TX:a:t=P:problem: mixed beam	!	!	!	!	!	!LO:DY:b:t=p&colon;	!	!	!
!	!	!	!LO:TX:a:t=P:problem: mixed beam	!	!LO:TX:a:t=P:problem: mixed beam	!	!	!	!
8B-\L	6	8f\L	8dd-X\L	.	8dd-X\L	p	8dd-X\L	lu-	4.ryy
!	!	!LO:SIC:ss=8c:v	!	!	!	!	!	!	!
8c\	4	8d-X\	8cc\	.	8cc\	.	8cc\J	.	.
8C/J	n	8c\J	8en/J	.	8en/J	.	8en\	-ge-	.
=32	=32	=32	=32	=32	=32	=32	=32	=32	=32
!	!	!	!	!	!	!LO:DY:b:t=for	!	!	!
4F\	.	8B-/L	8ccc\L	.	8ccc\L	f	4f\	-am	4.ryy
.	.	8c/	8aa-\	.	8aa-X\	.	.	.	.
8r	.	8B-/J	8gg\J	.	8gg\J	.	8r	.	.
=33	=33	=33	=33	=33	=33	=33	=33	=33	=33
!	!	!	!	!	!	!	!LO:TX:a:t=7	!	!
!	!	!	!	!	!	!	!LO:N:vis=00	!	!
8F\L	.	8A-/L	16ff\LL	.	16ff\LL	.	1.r	.	4.ryy
.	.	.	16een\JJ	.	16een\JJ	.	.	.	.
8D-X\	6	8d-X/	4ff\	.	4ff\	.	.	.	.
8C\J	.	8c/J	.	.	.	.	.	.	.
=34	=34	=34	=34	=34	=34	=34	=34	=34	=34
8BB-/L	-	8B-/L	16gg\LL	.	16gg\LL	.	.	.	4.ryy
.	.	.	16bb-\J	.	16bb-\JJ	.	.	.	.
8C/	6 4	8c/	8aa-\	.	8aa-X\L	.	.	.	.
8BB-/J	4 2	8c/J	8gg\J	.	8gg\J	.	.	.	.
!	!	!	!LO:LB:g=original	!	!	!	!	!	!
=35	=35	=35	=35	=35	=35	=35	=35	=35	=35
8AA-X/L	6	8f\L	16ccc\LL	.	16ccc\LL	.	.	.	4.ryy
.	.	.	16aa-X\JJ	.	16aa-X\JJ	.	.	.	.
8D-X/	.	8g\	4ff\	.	4ff\	.	.	.	.
8C/J	.	8a-\J	.	.	.	.	.	.	.
=36	=36	=36	=36	=36	=36	=36	=36	=36	=36
!	!	!LO:TX:a:t=P:problem: mixed beam	!	!	!	!	!	!	!
8BB-/L	-	8b-\L	16gg\LL	.	16gg\LL	.	.	.	4.ryy
.	.	.	16bb-\J	.	16bb-\JJ	.	.	.	.
8C/	6 4	8cc\	8aa-X\	.	8aa-\L	.	.	.	.
8C/J	n	8c\J	8gg\J	.	8gg\J	.	.	.	.
=37	=37	=37	=37	=37	=37	=37	=37	=37	=37
!	!	!	!	!	!	!	!LO:N:vis=0	!	!
8F\L	.	4f\	16aa-X\LL	.	16aa-X\LL	.	2.r	.	4.ryy
.	.	.	16ff\	.	16ff\	.	.	.	.
8G\	.	.	16een\	.	16een\	.	.	.	.
.	.	.	16gg\	.	16gg\	.	.	.	.
8A-X\J	6	8r	16ff\	.	16ff\	.	.	.	.
.	.	.	16cc\JJ	.	16cc\JJ	.	.	.	.
=38	=38	=38	=38	=38	=38	=38	=38	=38	=38
!LO:TX:a:t=P:problem: mixed beam	!	!LO:TX:a:t=1	!LO:TX:a:t=P:problem: mixed beam	!	!LO:TX:a:t=P:problem: mixed beam	!	!	!	!
8B-\L	-	4.r	8dd-X\L	.	8dd-X\L	.	.	.	4.ryy
8c\	4	.	8cc\	.	8cc\	.	.	.	.
8C/J	n	.	8en/J	.	8en/J	.	.	.	.
!LO:PB:g=original	!	!	!	!	!	!	!	!	!
=39	=39	=39	=39	=39	=39	=39	=39	=39	=39
4FF/	.	8f\L	8f/L	.	8f/L	.	4.r	.	4.ryy
!	!	!LO:SIC:ss=8c:v	!	!	!	!	!	!	!
.	.	8d-X\	8c/	.	8c/	.	.	.	.
8r	.	8c\J	8c/J	.	8c/J	.	.	.	.
=40	=40	=40	=40	=40	=40	=40	=40	=40	=40
!	!	!	!	!	!	!LO:DY:b:t=p&colon;	!	!	!
4.r	.	8B-/L	8ccc\L	.	8ccc\L	p	8cc\	E-	4.ryy
.	.	8c/	8aa-X\	.	8aa-X\	.	8a-X\L	-ia	.
.	.	8B-/J	8gg\J	.	8gg\J	.	8g\J	.	.
=41	=41	=41	=41	=41	=41	=41	=41	=41	=41
8F\L	.	8A-/L	16ff\LL	.	16ff\LL	.	16f\LL	ma-	4.ryy
.	.	.	16een\JJ	.	16een\JJ	.	16en\JJ	.	.
8D-X\	6	8d-X/	4ff\	.	4ff\	.	4f\	-ter	.
8C\J	.	8c/J	.	.	.	.	.	.	.
=42	=42	=42	=42	=42	=42	=42	=42	=42	=42
8BB-/L	-	8B-/L	16gg\LL	.	16gg\LL	.	16g\LL	fons	4.ryy
.	.	.	16bb-\JJ	.	16bb-\JJ	.	16b-\J	.	.
!	!	!LO:TX:b:t=6	!	!	!	!	!	!	!
8C/	6 4	8c/	8aa-X\L	.	8aa-X\L	.	8a-X\J	.	.
8BB-/J	4 2	8c/J	8gg\J	.	8gg\J	.	8g\	a-	.
=43	=43	=43	=43	=43	=43	=43	=43	=43	=43
8AA-X/L	6	8f\L	16ccc\LL	.	16ccc\LL	.	16cc\LL	-mo-	4.ryy
.	.	.	16aa-\JJ	.	16aa-X\JJ	.	16a-X\JJ	.	.
8D-X/	.	8g\	4ff\	.	4ff\	.	4f\	-ris	.
8C/J	.	8a-\J	.	.	.	.	.	.	.
!	!	!LO:LB:g=original	!	!	!	!	!	!	!
=44	=44	=44	=44	=44	=44	=44	=44	=44	=44
!	!	!LO:TX:a:t=P:problem: brak dwóch taktów	!	!	!	!	!	!	!
8BB-/L	-	4.ryy	16gg\LL	.	16gg\LL	.	16g\LL	fons	4.ryy
.	4	.	16bb-\J	.	16bb-\JJ	.	16b-\J	.	.
.	n	.	.	.	.	.	.	.	.
8C/	.	.	8aa-X\	.	8aa-\L	.	8a-X\J	.	.
8C/J	.	.	8gg\J	.	8gg\J	.	8g\	a-	.
!	!	!	!	!	!LO:LB:g=original	!	!	!	!
=45	=45	=45	=45	=45	=45	=45	=45	=45	=45
!	!	!	!	!LO:DY:b:t=for	!	!LO:DY:b:t=for	!	!	!
8F\L	.	4.ryy	16aa-X\LL	f	16aa-\LL	f	24a-X\LL	-mo-	4.ryy
.	.	.	.	.	.	.	24g\	.	.
.	.	.	16ccc\	.	16ccc\	.	.	.	.
.	.	.	.	.	.	.	24f\JJ	.	.
8G\	.	.	16een\	.	16een\	.	8f\	-ris	.
.	.	.	16gg\J	.	16gg\J	.	.	.	.
8A-\J	6	.	8ff\J	.	8ff\J	.	8r	.	.
!	!	!	!	!	!	!	!LO:LB:g=original	!	!
=46	=46	=46	=46	=46	=46	=46	=46	=46	=46
!	!	!	!	!LO:DY:b	!	!LO:DY:b:t=p&colon;	!	!	!
4.BBn/	7	4Bn/	8a-X/L	p	8a-X/L	p	8a-X\L	me	4.ryy
.	.	.	8g/	.	8g/	.	8g\J	.	.
.	.	8r	8f/J	.	8f/J	.	8f\	sen-	.
=47	=47	=47	=47	=47	=47	=47	=47	=47	=47
!	!	!	!LO:TX:a:t=P:problem: mixed beam	!	!LO:TX:a:t=P:problem: mixed beam	!LO:DY:b:t=f&colon;	!	!	!
8C\L	.	8c\L	16e-/LL	.	16e-/LL	f	8e-\L	-ti-	4.ryy
.	.	.	16gg\	.	16gg\	.	.	.	.
8D\	.	8d\	16bn\	.	16bn\	.	8d\J	.	.
.	.	.	16dd\J	.	16dd\J	.	.	.	.
8E-\J	.	8e-\J	8cc\J	.	8cc\J	.	8c\	-re	.
=48	=48	=48	=48	=48	=48	=48	=48	=48	=48
4.FF#X/	7	4.F#X/	8e-/L	.	8e-/L	.	8ee-\L	vim	4.ryy
.	.	.	8d/	.	8d/	.	8dd\J	.	.
.	.	.	8c/J	.	8c/J	.	8cc\	do-	.
=49	=49	=49	=49	=49	=49	=49	=49	=49	=49
!LO:TX:a:t=P:problem: mixed beam	!	!LO:TX:a:t=P:problem: mixed beam	!	!	!	!	!LO:TX:a:t=P:problem:klamra łukowa z kropką nad triolą	!	!
8GG/L	.	8G/L	16Bn/LL	.	16Bn/LL	.	24bn\LL	-lo-	4.ryy
.	.	.	.	.	.	.	24a-\	.	.
.	.	.	16A-/J	.	16A-/J	.	.	.	.
.	.	.	.	.	.	.	24g\JJ	.	.
8G\	.	8g\	8G/J	.	8G/J	.	8g\	-ris	.
8F\J	.	8f\J	8r	.	8r	.	8r	.	.
=50	=50	=50	=50	=50	=50	=50	=50	=50	=50
!	!	!	!	!	!LO:TX:a:t=P:problem: takty 50-52 ujęte w znak repetycji	!	!	!	!
8r	.	8r	8r	.	(4.gg\	.	4.g\	fac	4.ryy
8E-\L	6	8e-\L	8ee-\L	.	.	.	.	.	.
8BBn\J	5 6	8Bn\J	8b-\J	.	.	.	.	.	.
!	!	!	!LO:LB:g=original	!	!	!	!	!	!
=51	=51	=51	=51	=51	=51	=51	=51	=51	=51
8C/L	.	8c/L	8cc/L	.	(4.gg\)	.	4.g\	ut	4.ryy
8AA-X/	.	8A-/	8a-X/	.	.	.	.	.	.
8FF#X/J	6 5	8F#X/J	8f#X/J	.	.	.	.	.	.
=52	=52	=52	=52	=52	=52	=52	=52	=52	=52
!	!	!	!LO:TX:a:t=P:problem: mixed beam	!	!	!	!	!	!
8GG/L	n	4G/	8g/L	.	(4.gg\)	.	4.g\	te-	4.ryy
8E-/	6	.	8ee-\	.	.	.	.	.	.
8BBn/J	6 5	8Bn/	8bn\J	.	.	.	.	.	.
=53	=53	=53	=53	=53	=53	=53	=53	=53	=53
!	!	!	!	!	!LO:TX:a:t=P:problem: takty 52-55 powtórzone repetycją	!	!	!	!
8C/L	.	8c/L	8cc/L	.	(4.gg\)yy	.	4.g\	-cum	4.ryy
8AA-X/	.	8A-/	8a-X/	.	.	.	.	.	.
8FF#X/J	6 5	8F#X/J	8f#X/J	.	.	.	.	.	.
=54	=54	=54	=54	=54	=54	=54	=54	=54	=54
!	!	!	!LO:TX:a:t=P:problem: mixed beam	!	!	!	!	!	!
8GG/L	n	8G/L	8g/L	.	(4.gg\)yy	.	4.g\	lu-	4.ryy
8E-/	6	8Bn/	8ee-\	.	.	.	.	.	.
8BBn/J	6 5	8d/J	8bn\J	.	.	.	.	.	.
=55	=55	=55	=55	=55	=55	=55	=55	=55	=55
!	!	!LO:TX:a:t=P:problem: w taktach 55-58 partia altówki nie pasuje do reszty instrumentów	!	!	!	!	!	!	!
!	!	!LO:TX:a:t=P:problem: mixed beam	!	!	!	!	!	!	!
8C/L	.	8g\L	8cc\L	.	(4.gg\)yy	.	4.g\	-ge-	4.ryy
8AA-X/	.	8Bn/	8a-X\	.	.	.	.	.	.
8FF#X/J	6 5	8G/J	8f#X\J	.	.	.	.	.	.
=56	=56	=56	=56	=56	=56	=56	=56	=56	=56
8GG/L	n	8c\L	4g/	.	4gg\)	.	4g\	-am	4.ryy
8BBn/	.	8d\	.	.	.	.	.	.	.
8D/J	.	8e-\J	8r	.	8r	.	8r	.	.
!LO:LB:g=original	!	!	!	!	!	!	!	!	!
=57	=57	=57	=57	=57	=57	=57	=57	=57	=57
!LO:TX:a:t=P:problem: mixed beam	!	!LO:TX:a:t=P:problem: mixed beam	!	!	!	!	!	!	!
8G\L	7	8f\L	16dd\LL	.	16dd\LL	.	8dd\	fac	4.ryy
.	.	.	16bn\JJ	.	16bn\JJ	.	.	.	.
.	.	.	.	.	8qqg/	.	.	.	.
8BB-/	.	8g\	4f/	.	4f/	.	4f\	ut	.
8GG/J	.	8G/J	.	.	.	.	.	.	.
=58	=58	=58	=58	=58	=58	=58	=58	=58	=58
!	!	!	!LO:TX:a:t=P:problem: mixed beam	!	!LO:TX:a:t=P:problem: mixed beam	!	!	!	!
8C\L	6|	4c\	16e-/LL	.	16e-/LL	.	16e-\LL	te-	4.ryy
.	.	.	16gg\	.	16gg\	.	16d\JJ	.	.
8D\	.	.	16bn\	.	16bn\	.	8e-\	-cim	.
.	.	.	16dd\J	.	16dd\J	.	.	.	.
8E-\J	6	8r	8cc\J	.	8cc\J	.	8r	.	.
=59	=59	=59	=59	=59	=59	=59	=59	=59	=59
!LO:TX:a:t=P:problem: mixed beam	!	!LO:TX:a:t=P:problem: brak dwóch taktów	!	!	!	!	!	!	!
8F\L	.	4.ryy	8a-X/L	.	8a-X/L	.	8a-X\L	lu-	4.ryy
8G\	4	.	8g/	.	8g/	.	8g\J	.	.
!	!	!	!	!	!	!	!LO:SIC:l:s=-ge-:v	!	!
8GG/J	n	.	8Bn/J	.	8Bn/J	.	8Bn/	-ie-	.
=60	=60	=60	=60	=60	=60	=60	=60	=60	=60
4C/	.	4.ryy	4c/	.	4c/	.	4c/	-am	4.ryy
8r	.	.	8r	.	8r	.	8r	.	.
!	!	!	!	!	!	!	!LO:LB:g=original	!	!
=61	=61	=61	=61	=61	=61	=61	=61	=61	=61
4.c\	.	4.cc\	4.cc\	.	4.cc\	.	4.cc\	E-	4.ryy
=62	=62	=62	=62	=62	=62	=62	=62	=62	=62
4.G\	n	4.g\	4.g/	.	4.g/	.	4.g\	-ia	4.ryy
=63	=63	=63	=63	=63	=63	=63	=63	=63	=63
8E-\L	6	8e-\L	8e-/L	.	8e-/L	.	8e-\L	ma-	4.ryy
8D\	6	8d\	8d/	.	8d/	.	8d\J	.	.
8C\J	.	8c\J	8c/J	.	8c/J	.	8c\	-ter	.
=64	=64	=64	=64	=64	=64	=64	=64	=64	=64
8c\L	.	8cc\L	8cc/L	.	8cc/L	.	8cc\L	fons	4.ryy
8A-X\	.	8a-X\	8a-/	.	8a-/	.	8a-X\J	.	.
8G\J	.	8g\J	8g/J	.	8g/J	.	8g\	a-	.
=65	=65	=65	=65	=65	=65	=65	=65	=65	=65
8F#X\	7-	8f#X\	8f#X/	.	8f#X/	.	8f#X\	-mo-	4.ryy
4G\	.	4g\	4g/	.	4g/	.	4g\	-ris	.
=66	=66	=66	=66	=66	=66	=66	=66	=66	=66
8B-\L	.	8b-\L	8a-X/L	.	8b-/L	.	8b-\L	me	4.ryy
8G\	.	8g\	8g/	.	8g/	.	8g\J	.	.
8F\J	.	8f\J	8f/J	.	8f/J	.	8f\	sen-	.
=67	=67	=67	=67	=67	=67	=67	=67	=67	=67
8En\	6 3	8en\	8en/	.	8en/	.	8en\	-ti-	4.ryy
4F\	-	4f\	4f/	.	4f/	.	4f\	-re	.
=68	=68	=68	=68	=68	=68	=68	=68	=68	=68
8A-X\L	.	8a-X\L	8a-X/L	.	8a-X/L	.	8a-\L	vim	4.ryy
8F\	.	8f\	8f/	.	8f/	.	8f\J	.	.
8E-\J	.	8e-\J	8e-/J	.	8e-/J	.	8e-\	do-	.
!	!	!LO:LB:g=original	!	!	!LO:LB:g=original	!	!	!	!
=69	=69	=69	=69	=69	=69	=69	=69	=69	=69
8D\	6 5	8d\	8d/	.	8d/	.	8d\	-lo-	4.ryy
4E-\	.	4e-\	4e-/	.	4e-/	.	4e-\	-ris	.
!	!	!	!LO:LB:g=original	!	!	!	!	!	!
=70	=70	=70	=70	=70	=70	=70	=70	=70	=70
8E-\L	.	8e-\L	4.g/	.	4.g/	.	4.g\	vim	4.ryy
8D\	.	8d\	.	.	.	.	.	.	.
8C\J	.	8c\J	.	.	.	.	.	.	.
=71	=71	=71	=71	=71	=71	=71	=71	=71	=71
8A-X\L	.	8a-\L	4.cc/	.	4.cc\	.	4.cc\	do-	4.ryy
8G\	.	8g\	.	.	.	.	.	.	.
8F#X\J	7	8f#X\J	.	.	.	.	.	.	.
=72	=72	=72	=72	=72	=72	=72	=72	=72	=72
4G;\	.	4g;\	16bn/LL	.	16bn/LL	.	16bn\LL	-lo-	4.ryy
.	.	.	16a-/J	.	16a-/J	.	16a-\JJ	.	.
.	.	.	8g/J	.	8g/J	.	4g;\	-ris	.
8r	.	8r	8r	.	8r;	.	.	.	.
=73	=73	=73	=73	=73	=73	=73	=73	=73	=73
!	!	!	!	!	!LO:TX:a:t=P:problem: takty 73-75 ujęte w znak repetycji	!	!	!	!
8r	.	8r	8r	.	4.gg\	.	4.g\	fac	4.ryy
8E-\L	6	8e-\L	8ee-\L	.	.	.	.	.	.
8BBn\J	6 5	8Bn\J	8bn\J	.	.	.	.	.	.
=74	=74	=74	=74	=74	=74	=74	=74	=74	=74
8C/L	.	8c/L	8cc/L	.	4.gg\	.	4.g\	ut	4.ryy
8AA-X/	.	8A-X/	8a-X/	.	.	.	.	.	.
8FF#X/J	6 5	8F#X/J	8f#X/J	.	.	.	.	.	.
!LO:LB:g=original	!	!	!	!	!	!	!	!	!
=75	=75	=75	=75	=75	=75	=75	=75	=75	=75
!	!	!	!LO:TX:a:t=P:problem: mixed beam	!	!	!	!	!	!
8GG/L	n	8G/L	8g/L	.	4.gg\	.	4.g\	te-	4.ryy
8E-/	.	8e-/	8ee-\	.	.	.	.	.	.
!LO:SIC:s=8BBn:v	!	!	!	!	!	!	!	!	!
8BB-/J	6 5	8Bn/J	8bn\J	.	.	.	.	.	.
!	!	!	!	!	!	!	!LO:LB:g=original	!	!
=76	=76	=76	=76	=76	=76	=76	=76	=76	=76
!	!	!	!	!	!LO:TX:a:t=P:problem:takty 76-78 powtórzone repetycją	!	!	!	!
8C/L	.	8c/L	8cc/L	.	4.gg\yy	.	4.g\	-cum	4.ryy
8AA-X/	.	8A-X/	8a-X/	.	.	.	.	.	.
8FF#X/J	6 5	8F#X/J	8f#X/J	.	.	.	.	.	.
=77	=77	=77	=77	=77	=77	=77	=77	=77	=77
!	!	!	!LO:TX:a:t=P:problem: mixed beam	!	!	!	!	!	!
8GG/L	n	8G/L	8g/L	.	4.gg\yy	.	4.g\	lu-	4.ryy
8E-/	.	8e-/	8ee-\	.	.	.	.	.	.
!LO:SIC:s=8BBn:v	!	!	!	!	!	!	!	!	!
8BB-/J	6 5	8Bn/J	8bn\J	.	.	.	.	.	.
=78	=78	=78	=78	=78	=78	=78	=78	=78	=78
8C/L	.	8c/L	8cc/L	.	4.gg\yy	.	4.g\	-ge-	4.ryy
8AA-X/	.	8A-X/	8a-X/	.	.	.	.	.	.
8FF#X/J	6 5	8F#X/J	8f#X/J	.	.	.	.	.	.
=79	=79	=79	=79	=79	=79	=79	=79	=79	=79
8GG/L	n	8G/L	4g/	.	4gg\	.	4g\	-am	4.ryy
8BBn/	.	8Bn/	.	.	.	.	.	.	.
8D/J	.	8d/J	8r	.	8r	.	8r	.	.
=80	=80	=80	=80	=80	=80	=80	=80	=80	=80
8G\L	n	8g\L	8dd\L	.	8dd\L	.	8dd\L	fac	4.ryy
8D\	.	8d\	8bn\	.	8bn\	.	8bn\J	.	.
8BBn\J	.	8Bn\J	8g\J	.	8g\J	.	8f\	ut	.
=81	=81	=81	=81	=81	=81	=81	=81	=81	=81
!	!	!	!LO:TX:a:t=P:problem: mixed beam	!	!LO:TX:a:t=P:problem: mixed beam	!	!	!	!
.	.	.	.	.	.	.	8qqf/	.	.
8C\L	.	8c\L	16e-/LL	.	16e-/LL	.	4e-\	te-	4.ryy
.	.	.	16gg\	.	16gg\	.	.	.	.
8D\	6|	8d\	16bn\	.	16bn\	.	.	.	.
.	.	.	16dd\J	.	16dd\J	.	.	.	.
8E-\J	.	8e-\J	8cc\J	.	8cc\J	.	8e-\	-cum	.
=82	=82	=82	=82	=82	=82	=82	=82	=82	=82
!LO:TX:a:t=P:problem: mixed beam	!	!LO:TX:a:t=P:problem: mixed beam	!	!	!	!LO:DY:b	!	!	!
8F\L	.	8f\L	8a-/L	.	8a-/L	p	8a-X\L	lu-	4.ryy
8G\	4	8g\	8g/	.	8g/	.	8g\J	.	.
!	!	!	!	!	!	!	!LO:SIC:l:s=-ge-:v	!	!
8GG/J	n	8G/J	8Bn/J	.	8Bn/J	.	8Bn/	-ie-	.
=83	=83	=83	=83	=83	=83	=83	=83	=83	=83
!	!	!	!LO:TX:a:t=P:problem: mixed beam	!	!LO:TX:a:t=P:problem: mixed beam	!	!	!	!
8C\L	.	4c\	16c/LL	.	16c\LL	.	4c\	-am	4.ryy
.	.	.	16gg\	.	16gg\	.	.	.	.
8D\	6|	.	16bn\	.	16bn\	.	.	.	.
.	.	.	16dd\J	.	16dd\J	.	.	.	.
8E-\J	6	8r	8cc\J	.	8cc\J	.	8r	.	.
=84	=84	=84	=84	=84	=84	=84	=84	=84	=84
!LO:TX:a:t=P:problem: mixed beam	!	!LO:TX:a:t=P:problem: brak taktów, powinny byc powtórzone dwa poprzednie takty	!	!	!	!	!	!	!
8F\L	.	8f\Lyy	8a-X/L	.	8a-/L	.	8a-X\L	lu-	4.ryy
8G\	4	8g\yy	8g/	.	8g/	.	8g\J	.	.
!	!	!	!	!	!	!	!LO:SIC:l:s=-ge-:v	!	!
8GG/J	n	8G/Jyy	8Bn/J	.	8Bn/J	.	8Bn/	-ce-	.
=85	=85	=85	=85	=85	=85	=85	=85	=85	=85
!	!	!	!	!	!	!LO:DY:b:t=f&colon;	!	!	!
4C/	.	4c\yy	8gg\L	.	8gg\L	f	4c\	-am	4.ryy
.	.	.	8ee-\	.	8ee-\	.	.	.	.
8r	.	8ryy	8dd\J	.	8dd\J	.	8r	.	.
=86	=86	=86	=86	=86	=86	=86	=86	=86	=86
!	!	!	!	!	!	!	!LO:TX:a:t=9	!	!
!	!	!	!	!	!	!	!LO:N:vis=00	!	!
8c\L	.	8cc\L	16cc\LL	.	16cc\LL	.	1.r	.	4.ryy
.	.	.	16bn\JJ	.	16bn\JJ	.	.	.	.
8A-X\	6	8a-\	4cc\	.	4cc\	.	.	.	.
8G\J	.	8g\J	.	.	.	.	.	.	.
!	!	!	!LO:LB:g=original	!	!	!	!	!	!
=87	=87	=87	=87	=87	=87	=87	=87	=87	=87
8F\L	6 5	8f\L	16dd\LL	.	16dd\LL	.	.	.	4.ryy
.	.	.	16ff\JJ	.	16ff\JJ	.	.	.	.
8G\	6 4	8g\	8ee-\L	.	8ee-\L	.	.	.	.
8F\J	4 2	8f\J	8dd\J	.	8dd\J	.	.	.	.
=88	=88	=88	=88	=88	=88	=88	=88	=88	=88
8E-\L	6	8e-\L	16gg\LL	.	16gg\LL	.	.	.	4.ryy
.	.	.	16ee-\JJ	.	16ee-\JJ	.	.	.	.
8A-\	.	8a-\	4cc\	.	4cc\	.	.	.	.
8G\J	.	8g\J	.	.	.	.	.	.	.
!	!	!LO:PB:g=original	!	!	!	!	!	!	!
=89	=89	=89	=89	=89	=89	=89	=89	=89	=89
!LO:TX:a:t=P:problem: mixed beam	!	!LO:TX:a:t=P:problem: mixed beam	!	!	!	!	!	!	!
8F\L	6 5	8f\L	16dd\LL	.	16dd\LL	.	.	.	4.ryy
.	.	.	16ff\JJ	.	16ff\JJ	.	.	.	.
8G\	4	8g\	8ee-\L	.	8ee-\L	.	.	.	.
8GG/J	n	8G/J	8dd\J	.	8dd\J	.	.	.	.
!	!	!	!	!	!LO:PB:g=original	!	!	!	!
=90	=90	=90	=90	=90	=90	=90	=90	=90	=90
!	!	!	!	!	!	!	!LO:N:vis=00	!	!
8C\L	.	8c\L	16ee-\LL	.	16ee-\LL	.	1.r	.	4.ryy
.	.	.	16gg\	.	16gg\	.	.	.	.
8D\	6|	8d\	16bn\	.	16bn\	.	.	.	.
.	.	.	16dd\J	.	16dd\J	.	.	.	.
8E-\J	6	8e-\J	8cc\J	.	8cc\J	.	.	.	.
=91	=91	=91	=91	=91	=91	=91	=91	=91	=91
!LO:TX:a:t=P:problem: mixed beam	!	!LO:TX:a:t=P:problem: mixed beam	!	!	!	!	!	!	!
8F\L	.	8f\L	8a-X/L	.	8a-X/L	.	.	.	4.ryy
8G\	4	8g\	8g/	.	8g/	.	.	.	.
8GG/J	n	8G/J	8Bn/J	.	8Bn/J	.	.	.	.
=92	=92	=92	=92	=92	=92	=92	=92	=92	=92
8C\L	.	8c\L	16ee-\LL	.	16ee-\LL	.	.	.	4.ryy
.	.	.	16gg\	.	16gg\	.	.	.	.
8D\	6|	8d\	16bn\	.	16bn\	.	.	.	.
.	.	.	16dd\J	.	16dd\J	.	.	.	.
8E-\J	6	8e-\J	8cc\J	.	8cc\J	.	.	.	.
!LO:LB:g=original	!	!	!	!	!	!	!	!	!
=93	=93	=93	=93	=93	=93	=93	=93	=93	=93
!LO:TX:a:t=P:problem: mixed beam	!	!LO:TX:a:t=P:problem: mixed beam	!	!	!	!	!	!	!
8F\L	.	8f\L	8a-X/L	.	8a-X/L	.	.	.	4.ryy
8G\	4	8g\	8g/	.	8g/	.	.	.	.
8GG/J	n	8G/J	8Bn/J	.	8Bn/J	.	.	.	.
=94	=94	=94	=94	=94	=94	=94	=94	=94	=94
4.C/	.	4c\	4.c/	.	4.c/	.	4.r	.	4.ryy
.	.	8r	.	.	.	.	.	.	.
==	==	==	==	==	==	==	==	==	==
*-	*-	*-	*-	*-	*-	*-	*-	*-	*-
!!!system-decoration: [(g1)][(g2)][(g3)]
!!!AIN: 1 organ
!!!ENC: Anna Matuszewska
!!!END: 2020-11-30
!!!ENC: Anastazja Marusiak
!!!END: 2020-06-09
